X:1
T:Prayer (Babcock), CM
T:Prayer (Babcock), CM
T:Maltbie Davenport Babcock, 1889
T:Public Domain Courtesy of the Cyber Hymnal™
C:Maltbie Davenport Babcock, 1889
Z:Public Domain
Z:Courtesy of the Cyber Hymnal™
%%score ( 1 2 ) ( 3 4 )
L:1/8
Q:1/4=110
M:4/4
K:Ab
V:1 treble 
V:2 treble 
V:3 bass 
V:4 bass 
V:1
 [CE]2 | [DF]2 [EG]2 [EA]2 [Ac]2 | [Ge]3 [Gd] [Gc]2 [GB]2 | [FA]2 [EA]2 [EG]2 [DF]2 | [CE]6 [CE]2 | %5
 E3 E [FA]2 [AB]2 | [Ac]2 [GB]2 [Ae]2 [=Ae]2 | [Be]3 [Ad] [Gc]2 [EB]2 | [EA]8 |] %9
V:2
 x2 | x8 | x8 | x8 | x8 | E3 E x4 | x8 | x8 | x8 |] %9
V:3
 A,2 | A,2 [A,B,]2 [A,C]2 [F,C]2 | [E,C]3 [E,B,] [E,E]2 [E,D]2 | [F,C]2 [C,A,]2 [D,A,]2 [F,A,]2 | %4
 A,6 A,2 | [G,B,]3 [G,B,] [F,C]2 [F,=D]2 | [E,E]2 [DE]2 [CE]2 [F,F]2 | [B,F]3 [B,F] [E,E]2 [E,D]2 | %8
 [A,,A,C]8 |] %9
V:4
 A,2 | A,2 x6 | x8 | x8 | A,6 A,2 | x8 | x8 | x8 | x8 |] %9

